icons/pain_fill.svg

<svg width="48" height="48" viewBox="0 0 48 48" fill="none" xmlns="http://www.w3.org/2000/svg">
<path fill-rule="evenodd" clip-rule="evenodd" d="M18.7141 43.1989C18.1642 43.1483 17.7594 42.6614 17.81 42.1114L18.6126 33.3949L22.6576 35.5348L23.5882 29.9414C23.6789 29.3966 24.194 29.0284 24.7388 29.1191C25.2836 29.2097 25.6517 29.7248 25.5611 30.2696L24.1751 38.6002L20.3291 36.5656L19.8016 42.2948C19.751 42.8448 19.2641 43.2496 18.7141 43.1989Z" fill="black"/>
<path fill-rule="evenodd" clip-rule="evenodd" d="M4.70634 29.7527C4.43692 29.2706 4.60934 28.6613 5.09145 28.3919L13.0341 23.9533L13.5827 28.7104L19.0257 26.1708C19.5262 25.9373 20.1212 26.1538 20.3548 26.6542C20.5883 27.1547 20.3718 27.7498 19.8714 27.9833L11.9138 31.696L11.391 27.1626L6.06711 30.1378C5.585 30.4072 4.97576 30.2348 4.70634 29.7527Z" fill="black"/>
<path fill-rule="evenodd" clip-rule="evenodd" d="M9.35468 9.55172C9.64123 9.07958 10.2563 8.92914 10.7284 9.21569L18.6951 14.0509L14.7177 16.9542L19.7859 20.5613C20.2359 20.8816 20.341 21.506 20.0208 21.9559C19.7006 22.4059 19.0762 22.511 18.6262 22.1908L11.2973 16.9746L15.0929 14.2042L9.69071 10.9254C9.21858 10.6389 9.06813 10.0238 9.35468 9.55172Z" fill="black"/>
<path fill-rule="evenodd" clip-rule="evenodd" d="M31.2567 5.33763C31.8005 5.43354 32.1637 5.9522 32.0678 6.49609L30.565 15.0183L26.7623 12.5846L25.3965 17.9879C25.2611 18.5233 24.7173 18.8477 24.1819 18.7123C23.6465 18.577 23.3221 18.0332 23.4575 17.4978L25.5034 9.40427L29.1164 11.7166L30.0982 6.14877C30.1941 5.60488 30.7128 5.24172 31.2567 5.33763Z" fill="black"/>
<path fill-rule="evenodd" clip-rule="evenodd" d="M43.8544 19.3631C44.12 19.8474 43.9428 20.4552 43.4585 20.7208L35.8435 24.8977L35.3596 20.3894L30.2626 22.7187C29.7603 22.9482 29.167 22.7271 28.9374 22.2248C28.7079 21.7225 28.929 21.1292 29.4313 20.8996L37.0521 17.417L37.512 21.7015L42.4967 18.9673C42.9809 18.7017 43.5888 18.8789 43.8544 19.3631Z" fill="black"/>
<path fill-rule="evenodd" clip-rule="evenodd" d="M38.6643 37.4888C38.3778 37.9609 37.7627 38.1113 37.2906 37.8248L29.7723 33.2617L33.489 30.5488L28.8366 27.2376C28.3866 26.9173 28.2815 26.2929 28.6017 25.843C28.922 25.393 29.5463 25.2879 29.9963 25.6081L36.9094 30.5283L33.3745 33.1085L38.3283 36.1151C38.8004 36.4016 38.9509 37.0166 38.6643 37.4888Z" fill="black"/>
</svg>

<svg
  xmlns="http://www.w3.org/2000/svg"
  width="24"
  height="24"
  viewBox="0 0 24 24"
  fill="none"
  stroke="currentColor"
  stroke-width="2"
  stroke-linecap="round"
  stroke-linejoin="round"
>
  <path
    fill-rule="evenodd"
    d="M18.714 43.199a1 1 0 0 1-.904-1.088l.803-8.716 4.045 2.14.93-5.594a1 1 0 0 1 1.973.329l-1.386 8.33-3.846-2.034-.527 5.729a1 1 0 0 1-1.088.904"
    clip-rule="evenodd"
  />
  <path
    fill-rule="evenodd"
    d="M4.706 29.753a1 1 0 0 1 .385-1.361l7.943-4.439.549 4.757 5.443-2.54a1 1 0 0 1 .845 1.813l-7.957 3.713-.523-4.533-5.324 2.975a1 1 0 0 1-1.36-.385"
    clip-rule="evenodd"
  />
  <path
    fill-rule="evenodd"
    d="M9.355 9.552a1 1 0 0 1 1.373-.336l7.967 4.835-3.977 2.903 5.068 3.607a1 1 0 0 1-1.16 1.63l-7.329-5.216 3.796-2.77-5.402-3.28a1 1 0 0 1-.336-1.373"
    clip-rule="evenodd"
  />
  <path
    fill-rule="evenodd"
    d="M31.257 5.338a1 1 0 0 1 .81 1.158l-1.502 8.522-3.803-2.433-1.366 5.403a1 1 0 0 1-1.939-.49l2.046-8.094 3.613 2.313.982-5.568a1 1 0 0 1 1.159-.811"
    clip-rule="evenodd"
  />
  <path
    fill-rule="evenodd"
    d="M43.854 19.363a1 1 0 0 1-.395 1.358l-7.616 4.177-.483-4.509-5.097 2.33a1 1 0 0 1-.832-1.82l7.621-3.482.46 4.284 4.985-2.734a1 1 0 0 1 1.357.396"
    clip-rule="evenodd"
  />
  <path
    fill-rule="evenodd"
    d="M38.664 37.489a1 1 0 0 1-1.373.336l-7.519-4.563 3.717-2.713-4.652-3.311a1 1 0 0 1 1.16-1.63l6.912 4.92-3.535 2.58 4.954 3.007a1 1 0 0 1 .336 1.374"
    clip-rule="evenodd"
  />
</svg>
